X:173
T:Shpraiz ich mir
O:klezmer
M:2/4
L:1/8
Q:1/4=90
K:Dm
V:1
"Dm" DE FE |"Gm" FG2 (F/E/)|"Dm" D/"Bb" D/ |"Dm" D2 z2 |
"Am" AB cB |"E" cd2 c/B/|"Am" A/"Dm" A/ |"Am" A2 "A7" z2  |:
"Dm" fe d^c |"Gm" ed2 c/B/|"A" A2 G2 |"Dm" (F3 A)|
"C" c BA G|"Gm" F G2 F/E/|"Dm" D/"Bb" D/ |"Dm" D2 z2 :|
V:2          %2e stem
FG AG |AB2 (A/G/)|F2 F2 |FD/E/ F/G/A/B/ |
cd ed |ef2 e/d/|c2 c2 |cA/B/ ^c/d/_e/e/  |:
ag fe |gf2 e/d/|^c2 B2 |AF/G/ A/B/^c/d/ |
ed cB |AB2 A/G/|F2 F2 |FG/A/ B/c/d/e/ :|
V:3          %estam
.D,2 .F,2 |.G,2 ^C,2 |.D,2 .B,2 |.D,2 .^G,2 |
.A,2 .F,2 |.E,2 .^G,2 |.A,2 .F,2 |.A,2 .^C,2  |:
.D,2 .F,2 |.G,2 .^G,2 |.A,2 .^C,2 |.D,2 .F,2 |
.G,2 .E,2 |.D,2 .E,2 |.D,2 .B,2 |D,2 z2 :|
V:4          %dv
(D,2 D,2) |(G,2 G,2) |(D,2 D,2) |(D,2 ^G,2) |
(A,2 A,2) |(E,2 E,2) |(A,2 A,2) |(A,2 ^C,2)  |:
(D,2 D,2) |(G,2 G,2) |(A,2 A,2) |(D,2 D,2) |
(C,2 C,2) |(G,2 G,2) |(D,2 D,2) |D,2 z2 :|





